X:1
T:Fughetta in e-Moll
T:Fughetta in e-Moll
T:Domenico Zipoli (1688-1726)
T:Public Domain (PianoXML typeset)
C:Domenico Zipoli (1688-1726)
Z:Public Domain (PianoXML typeset)
%%score { ( 1 3 ) | ( 2 4 ) }
L:1/8
Q:1/4=100
M:3/8
K:G
V:1 treble nm="Piano" snm="Pno."
V:3 treble 
V:2 bass 
V:4 bass 
V:1
!mf!"^Allegro energico" (!1!E/F/G/A/B) | .!4!c.B.A | .G(!4!A/G/F/E/ | F).B.^A | %4
 .!1!B(!4!^c/B/c/^A/ | !1!B3) | (!5!e/d/c/B/A/e/ | d3) | (!4!c/B/A/G/!2!F/c/ | !4!B3) | %10
 (!4!A/G/F/E/!2!^D/!5!A/ | [EG]2) [^DF] | .!1!E.!2!=D.C | .B, !tenuto!E2- | E(D/^C/D/E/ | ^C3) | %16
!f! (!1!B/^c/d/e/f) | .!4!g.f.e | .d(!3!e/d/c/!2!B/) | (!1!c/a/g/a/c/a/) | (!1!B/g/f/g/B/g/) | %21
 (!1!A/f/e/f/A/f/) |!f! .!1!G.e.G | .!2!F.d.F | .E.c.E | (!2!^D/E/F/!1!G/A/B/ | .c).B.A | %27
 .G!4!A/G/F/E/- | E[Q:1/4=80]"^rit."!2!^D/^C/D | !fermata!E3 |] %30
V:2
 z3 | z3 | z3 |[K:treble] (B,/^C/D/E/F) | .G.F.E | .D(E/D/C/B,/ | C3) |[K:bass] .B,(E/D/C/B,/ | %8
 A,2) .D | .G,(C/B,/A,/G,/ | F,2) .B, | (E,/F,/G,/A,/B,) | .C.B,.A, | .G,(A,/G,/F,/E,/ | %14
 .F,) (!tenuto!B,2 | B,)(^A,/^G,/A,/F,/ | [G,B,]2) .[D,B,] | .[E,B,] !tenuto![F,^A,]2 | %18
 .[B,,B,] !tenuto![^G,B,]2 | .A,.C.F, | .G,.B,.E, | .F,.A,.^D, | (E,/C/B,/C/E,/C/) | %23
 (D,/B,/A,/B,/D,/B,/) | (C,/A,/G,/A,/C,/A,/) | !tenuto![B,,-B,]3 | .A,.G,.F, | !tenuto![E,G,]3 | %28
 !tenuto![B,,B,]3 | !fermata![E,B,]3 |] %30
V:3
 x3 | x3 | x3 | x3 | x3 | x3 | x3 | z G2 | x3 | z E2 | x3 | x3 | x3 | x3 | x3 | x3 | x3 | x3 | x3 | %19
 x3 | x3 | x3 | x3 | x3 | x3 | x3 | x3 | x3 | !3!F2- F/A/- | A^G/F/!fermata!G |] %30
V:4
 x3 | x3 | x3 |[K:treble] x3 | x3 | x3 | x3 |[K:bass] x3 | x3 | x3 | x3 | x3 | x3 | x3 | x3 | x3 | %16
 x3 | x3 | x3 | x3 | x3 | x3 | x3 | x3 | x3 | x3 | B,,3 | x3 | x3 | x3 |] %30

